public/images/android-studio.svg

<svg fill="none" height="128" viewBox="0 0 128 128" width="128" xmlns="http://www.w3.org/2000/svg"><path d="m49.8535 123.492c-1.9784-.469-3.6342-1.566-5.9514-3.943-3.8706-3.971-7.0117-5.624-12.4712-6.564-5.6635-.975-8.1803-3.08-9.6934-8.108-1.8677-6.2062-3.8198-9.1785-8.109-12.3465-4.8656-3.5939-6.11398-6.7631-4.92639-12.5063 1.09997-5.3194.67876-9.1013-1.55522-13.9638-2.66544-5.8017-2.3364-8.9018 1.44931-13.6551 3.4706-4.3575 4.5599-7.2379 5.0797-13.4316.5245-6.2504 2.2635-8.8147 7.3849-10.89 4.2743-1.7319 7.9309-4.7385 9.9581-8.188 2.3443-3.9889 2.6865-4.4462 4.139-5.5299 2.3439-1.7487 4.239-2.2333 7.8482-2.007 6.2694.3931 9.6297-.3597 13.8399-3.10048 5.4894-3.57359 8.8179-3.57359 14.3074 0 4.2102 2.74078 7.5705 3.49358 13.8399 3.10048 5.9287-.3718 8.3957 1.1846 12.0095 7.5767 1.7909 3.1677 5.4512 6.2507 9.4582 7.9652 5.706 2.4421 7.364 4.671 7.785 10.4631.456 6.2729 1.742 9.7802 5.149 14.0415 3.794 4.7448 4.125 7.8478 1.457 13.6551-2.233 4.8625-2.655 8.6444-1.555 13.9638 1.188 5.7432-.061 8.9124-4.926 12.5063-4.289 3.168-6.241 6.1403-8.109 12.3465-1.513 5.028-4.03 7.133-9.6935 8.108-5.4711.942-8.6158 2.6-12.4712 6.577-4.274 4.407-7.3379 5.135-13.3131 3.159-4.8871-1.615-8.6498-1.622-13.5174-.024-3.4097 1.119-5.2272 1.314-7.4133.795z" fill="#000" opacity=".2"/><path d="m49.8535 122.321c-1.9784-.47-3.6342-1.567-5.9514-3.944-3.8706-3.97-7.0117-5.624-12.4712-6.563-5.6635-.975-8.1803-3.081-9.6934-8.108-1.8677-6.207-3.8198-9.1793-8.109-12.3474-4.8656-3.5939-6.11398-6.7631-4.92639-12.5062 1.09997-5.3195.67876-9.1014-1.55522-13.9639-2.66544-5.8017-2.3364-8.9018 1.44931-13.655 3.4706-4.3576 4.5599-7.238 5.0797-13.4317.5245-6.2504 2.2635-8.8147 7.3849-10.8899 4.2743-1.732 7.9309-4.7386 9.9581-8.1881 2.3443-3.9889 2.6865-4.4462 4.139-5.5298 2.3439-1.7488 4.239-2.2334 7.8482-2.0071 6.2694.3931 9.6297-.3596 13.8399-3.10045 5.4894-3.5736 8.8179-3.5736 14.3074 0 4.2102 2.74085 7.5705 3.49355 13.8399 3.10045 5.9287-.3718 8.3957 1.1846 12.0095 7.5767 1.7909 3.1678 5.4512 6.2507 9.4582 7.9653 5.706 2.442 7.364 4.6709 7.785 10.4631.456 6.2728 1.742 9.7801 5.149 14.0415 3.794 4.7447 4.125 7.8477 1.457 13.655-2.233 4.8625-2.655 8.6444-1.555 13.9639 1.188 5.7431-.061 8.9123-4.926 12.5062-4.289 3.1681-6.241 6.1404-8.109 12.3474-1.513 5.027-4.03 7.133-9.6935 8.108-5.4711.941-8.6158 2.6-12.4712 6.576-4.274 4.408-7.3379 5.135-13.3131 3.16-4.8871-1.616-8.6498-1.623-13.5174-.025-3.4097 1.119-5.2272 1.314-7.4133.796z" fill="#fff"/><path d="m85.0051 59.0295c-.369-.7531-.0527-1.6567.7003-2.0257.753-.3689 1.6566-.0527 2.0256.7003.369.7531.0527 1.6567-.7003 2.0257-.753.3689-1.6566.0527-2.0256-.7003zm7.3269 15.0603c-.369-.753-.0528-1.6566.7003-2.0256.753-.369 1.6566-.0527 2.0256.7003s.0527 1.6566-.7003 2.0256-1.6567.0527-2.0256-.7003zm.64-19.5408c-4.8193-3.4413-11.107-4.3298-16.9278-2.0783l15.9112 32.7186c5.3615-3.1853 8.5396-8.6898 8.8106-14.601l6.039.4292c.346.0226.648-.2334.67-.5874.023-.3464-.233-.6476-.587-.6701l-6.115-.4368c-.06-2.5753-.677-5.2033-1.9049-7.7335-1.2274-2.5226-2.9141-4.631-4.9021-6.2726l3.4338-5.0829c.1957-.2861.1204-.6777-.1657-.8735s-.6777-.1205-.8735.1657l-3.3886 5.0151" fill="#3ddc84"/><g fill="#4285f4"><path d="m78.3033 66.8683c-4.488 2.1687-9.3149 3.2681-14.345 3.2681-11.3329 0-21.6267-5.753-27.6282-14.9097-.4744-.7229-1.4533-.8961-2.1536-.3841l-5.7757 4.2546c-.6551.4819-.8057 1.4006-.3464 2.0783 7.8841 11.7697 21.2351 19.1417 35.9039 19.1417 6.5738 0 12.8916-1.4383 18.7727-4.2771z"/><path d="m63.9057 30.6708h3.125v-6.9052c0-1.7244-1.4006-3.125-3.125-3.125s-3.1251 1.4006-3.1251 3.125v6.9052z"/><path d="m55.7729 44.1499-21.4836 44.2171c-.4668.9564-.7153 1.9955-.7379 3.0573l-.128 5.7907c-.0302 1.4985 1.7018 2.3419 2.8614 1.3931l4.4729-3.6747c.8208-.6702 1.4835-1.5136 1.9504-2.4699l21.1748-43.5922-8.1025-4.7139z"/><path d="m94.2671 91.4167c-.0226-1.0617-.2786-2.1009-.7379-3.0572l-21.4836-44.2172-8.1025 4.729 21.1749 43.5771c.4668.9563 1.1295 1.7922 1.9503 2.4699l4.4729 3.6747c1.1596.9488 2.8991.1054 2.8615-1.3931l-.128-5.7907z"/></g><path d="m63.9053 30.1211c-5.1732 0-9.375 4.2094-9.375 9.3751s4.2093 9.3751 9.375 9.3751 9.3751-4.2094 9.3751-9.3751-4.2094-9.3751-9.3751-9.3751zm0 14.5333c-2.8388 0-5.1581-2.3118-5.1581-5.1582s2.3117-5.1582 5.1581-5.1582 5.1582 2.3118 5.1582 5.1582-2.3118 5.1582-5.1582 5.1582z" fill="#073042"/></svg>

<svg width="128" height="128" viewBox="0 0 128 128" fill="none" xmlns="http://www.w3.org/2000/svg">
<path opacity="0.2" d="M49.8535 123.492C47.8751 123.023 46.2193 121.926 43.9021 119.549C40.0315 115.578 36.8904 113.925 31.4309 112.985C25.7674 112.01 23.2506 109.905 21.7375 104.877C19.8698 98.6708 17.9177 95.6985 13.6285 92.5305C8.7629 88.9366 7.51452 85.7674 8.70211 80.0242C9.80208 74.7048 9.38087 70.9229 7.14689 66.0604C4.48145 60.2587 4.81049 57.1586 8.5962 52.4053C12.0668 48.0478 13.1561 45.1674 13.6759 38.9737C14.2004 32.7233 15.9394 30.159 21.0608 28.0837C25.3351 26.3518 28.9917 23.3452 31.0189 19.8957C33.3632 15.9068 33.7054 15.4495 35.1579 14.3658C37.5018 12.6171 39.3969 12.1325 43.0061 12.3588C49.2755 12.7519 52.6358 11.9991 56.846 9.25832C62.3354 5.68473 65.6639 5.68473 71.1534 9.25832C75.3636 11.9991 78.7239 12.7519 84.9933 12.3588C90.922 11.987 93.389 13.5434 97.0028 19.9355C98.7937 23.1032 102.454 26.1862 106.461 27.9007C112.167 30.3428 113.825 32.5717 114.246 38.3638C114.702 44.6367 115.988 48.144 119.395 52.4053C123.189 57.1501 123.52 60.2531 120.852 66.0604C118.619 70.9229 118.197 74.7048 119.297 80.0242C120.485 85.7674 119.236 88.9366 114.371 92.5305C110.082 95.6985 108.13 98.6708 106.262 104.877C104.749 109.905 102.232 112.01 96.5685 112.985C91.0974 113.927 87.9527 115.585 84.0973 119.562C79.8233 123.969 76.7594 124.697 70.7842 122.721C65.8971 121.106 62.1344 121.099 57.2668 122.697C53.8571 123.816 52.0396 124.011 49.8535 123.492V123.492Z" fill="black"/>
<path d="M49.8535 122.321C47.8751 121.851 46.2193 120.754 43.9021 118.377C40.0315 114.407 36.8904 112.753 31.4309 111.814C25.7674 110.839 23.2506 108.733 21.7375 103.706C19.8698 97.499 17.9177 94.5267 13.6285 91.3586C8.7629 87.7647 7.51452 84.5955 8.70211 78.8524C9.80208 73.5329 9.38087 69.751 7.14689 64.8885C4.48145 59.0868 4.81049 55.9867 8.5962 51.2335C12.0668 46.8759 13.1561 43.9955 13.6759 37.8018C14.2004 31.5514 15.9394 28.9871 21.0608 26.9119C25.3351 25.1799 28.9917 22.1733 31.0189 18.7238C33.3632 14.7349 33.7054 14.2776 35.1579 13.194C37.5018 11.4452 39.3969 10.9606 43.0061 11.1869C49.2755 11.58 52.6358 10.8273 56.846 8.08645C62.3354 4.51285 65.6639 4.51285 71.1534 8.08645C75.3636 10.8273 78.7239 11.58 84.9933 11.1869C90.922 10.8151 93.389 12.3715 97.0028 18.7636C98.7937 21.9314 102.454 25.0143 106.461 26.7289C112.167 29.1709 113.825 31.3998 114.246 37.192C114.702 43.4648 115.988 46.9721 119.395 51.2335C123.189 55.9782 123.52 59.0812 120.852 64.8885C118.619 69.751 118.197 73.5329 119.297 78.8524C120.485 84.5955 119.236 87.7647 114.371 91.3586C110.082 94.5267 108.13 97.499 106.262 103.706C104.749 108.733 102.232 110.839 96.5685 111.814C91.0974 112.755 87.9527 114.414 84.0973 118.39C79.8233 122.798 76.7594 123.525 70.7842 121.55C65.8971 119.934 62.1344 119.927 57.2668 121.525C53.8571 122.644 52.0396 122.839 49.8535 122.321V122.321Z" fill="white"/>
<path d="M85.0051 59.0295C84.6361 58.2764 84.9524 57.3728 85.7054 57.0038C86.4584 56.6349 87.362 56.9511 87.731 57.7041C88.1 58.4572 87.7837 59.3608 87.0307 59.7298C86.2777 60.0987 85.3741 59.7825 85.0051 59.0295ZM92.332 74.0898C91.963 73.3368 92.2792 72.4332 93.0323 72.0642C93.7853 71.6952 94.6889 72.0115 95.0579 72.7645C95.4269 73.5175 95.1106 74.4211 94.3576 74.7901C93.6046 75.1591 92.7009 74.8428 92.332 74.0898ZM92.972 54.549C88.1527 51.1077 81.865 50.2192 76.0442 52.4707L91.9554 85.1893C97.3169 82.004 100.495 76.4995 100.766 70.5883L106.805 71.0175C107.151 71.0401 107.453 70.7841 107.475 70.4301C107.498 70.0837 107.242 69.7825 106.888 69.76L100.773 69.3232C100.713 66.7479 100.096 64.1199 98.8681 61.5897C97.6407 59.0671 95.954 56.9587 93.966 55.3171L97.3998 50.2342C97.5955 49.9481 97.5202 49.5565 97.2341 49.3607C96.948 49.1649 96.5564 49.2402 96.3606 49.5264L92.972 54.5415" fill="#3DDC84"/>
<path d="M78.3033 66.8683C73.8153 69.037 68.9884 70.1364 63.9583 70.1364C52.6254 70.1364 42.3316 64.3834 36.3301 55.2267C35.8557 54.5038 34.8768 54.3306 34.1765 54.8426L28.4008 59.0972C27.7457 59.5791 27.5951 60.4978 28.0544 61.1755C35.9385 72.9452 49.2895 80.3172 63.9583 80.3172C70.5321 80.3172 76.8499 78.8789 82.731 76.0401L78.3033 66.8683Z" fill="#4285F4"/>
<path d="M63.9057 30.6708H67.0307V23.7656C67.0307 22.0412 65.6301 20.6406 63.9057 20.6406C62.1813 20.6406 60.7806 22.0412 60.7806 23.7656V30.6708H63.9057Z" fill="#4285F4"/>
<path d="M55.7729 44.1499L34.2893 88.367C33.8225 89.3234 33.574 90.3625 33.5514 91.4243L33.4234 97.215C33.3932 98.7135 35.1252 99.5569 36.2848 98.6081L40.7577 94.9334C41.5785 94.2632 42.2412 93.4198 42.7081 92.4635L63.8829 48.8713L55.7804 44.1574L55.7729 44.1499Z" fill="#4285F4"/>
<path d="M94.2671 91.4167C94.2445 90.355 93.9885 89.3158 93.5292 88.3595L72.0456 44.1423L63.9431 48.8713L85.118 92.4484C85.5848 93.4047 86.2475 94.2406 87.0683 94.9183L91.5412 98.593C92.7008 99.5418 94.4403 98.6984 94.4027 97.1999L94.2747 91.4092L94.2671 91.4167Z" fill="#4285F4"/>
<path d="M63.9053 30.1211C58.7321 30.1211 54.5303 34.3305 54.5303 39.4962C54.5303 44.6619 58.7396 48.8713 63.9053 48.8713C69.071 48.8713 73.2804 44.6619 73.2804 39.4962C73.2804 34.3305 69.071 30.1211 63.9053 30.1211ZM63.9053 44.6544C61.0665 44.6544 58.7472 42.3426 58.7472 39.4962C58.7472 36.6498 61.0589 34.338 63.9053 34.338C66.7517 34.338 69.0635 36.6498 69.0635 39.4962C69.0635 42.3426 66.7517 44.6544 63.9053 44.6544Z" fill="#073042"/>
</svg>
